src/staging/static/icons/atv-na.svg

<svg enable-background="new 0 0 283.1 282.4" viewBox="0 0 283.1 282.4" xmlns="http://www.w3.org/2000/svg"><path d="m283.1 18.5c0-10.2-8.3-18.5-18.5-18.5h-246.1c-10.2 0-18.5 8.3-18.5 18.5v245.5c0 10.2 8.3 18.5 18.5 18.5h246.2c10.2 0 18.5-8.3 18.5-18.5v-245.5z" fill="#fff"/><path d="m283.1 18.5c0-10.2-8.3-18.5-18.5-18.5h-246.1c-10.2 0-18.5 8.3-18.5 18.5v245.5c0 10.2 8.3 18.5 18.5 18.5h246.2c10.2 0 18.5-8.3 18.5-18.5v-245.5z" fill="#a7a6a6"/><path clip-rule="evenodd" d="m65.8 160.2c-8.6 0-15.6 7-15.6 15.6s7 15.6 15.6 15.6 15.6-7 15.6-15.6c.1-8.6-6.9-15.6-15.6-15.6m151.5 0c-8.6 0-15.6 7-15.6 15.6s7 15.6 15.6 15.6 15.6-7 15.6-15.6-7-15.6-15.6-15.6m0 56.4c22.5 0 40.8-18.2 40.8-40.8 0-22.5-18.2-40.7-40.8-40.7-22.5 0-40.8 18.2-40.8 40.7 0 22.6 18.3 40.8 40.8 40.8m-51.3-42.1c.7-26.9 22.1-48.7 48.9-49.9.4-.1 26.2-.1 26.2-.1l-.1-15-58.8-11.2-4.4-17.6c-1-3.9-4.5-6.6-8.4-6.6h-13.1c-2.8 0-5 2.2-5 5s2.2 5 5 5h12c.5 2 2.2 8.6 3.9 15.5-7.3 4.5-22.4 13.7-26.1 15.1-4.5 1.8-10.6 1.9-16.7-.3l-46.9-11.9c-3.7-1.1-6.9-1.6-10.7-1.6h-33.5c-1.9 0-3.4 1.4-3.6 3.3l-.1 18.6s39.4 2.5 39.7 2.6c23.9 4 42.2 24.4 42.9 49.3h48.8zm-100.2 42.1c22.5 0 40.8-18.2 40.8-40.8 0-22.5-18.3-40.7-40.8-40.7s-40.8 18.2-40.8 40.7c.1 22.6 18.3 40.8 40.8 40.8m-28.2-130.9c-2.3 0-4.2 1.9-4.2 4.2s1.9 4.2 4.2 4.2h38.8c2.3 0 4.2-1.9 4.2-4.2s-1.9-4.2-4.2-4.2zm154.9 0c-2.3 0-4.2 1.9-4.2 4.2s1.9 4.2 4.2 4.2h41v4.8c0 2.3 1.9 4.2 4.2 4.2s4.2-1.9 4.2-4.2v-5.3c0-4.3-3.5-7.9-7.9-7.9z" fill="#fff" fill-rule="evenodd"/></svg>

<?xml version="1.0" encoding="utf-8"?>
<!-- Generator: Adobe Illustrator 22.1.0, SVG Export Plug-In . SVG Version: 6.00 Build 0)  -->
<svg version="1.1" xmlns="http://www.w3.org/2000/svg" xmlns:xlink="http://www.w3.org/1999/xlink" x="0px" y="0px"
	 viewBox="0 0 283.1 282.4" style="enable-background:new 0 0 283.1 282.4;" xml:space="preserve">
<style type="text/css">
	.st0{fill:#FFFFFF;}
	.st1{fill:#A7A6A6;}
	.st2{fill-rule:evenodd;clip-rule:evenodd;fill:#FFFFFF;}
</style>
<g id="Z_Base_layer_130mm">
	<g>
		<g>
			<path class="st0" d="M283.1,18.5c0-10.2-8.3-18.5-18.5-18.5H18.5C8.3,0,0,8.3,0,18.5V264c0,10.2,8.3,18.5,18.5,18.5h246.2
				c10.2,0,18.5-8.3,18.5-18.5V18.5z"/>
			<path class="st1" d="M283.1,18.5c0-10.2-8.3-18.5-18.5-18.5H18.5C8.3,0,0,8.3,0,18.5V264c0,10.2,8.3,18.5,18.5,18.5h246.2
				c10.2,0,18.5-8.3,18.5-18.5V18.5z"/>
		</g>
	</g>
</g>
<g id="atv">
	<g>
		<g>
			<path class="st2" d="M65.8,160.2c-8.6,0-15.6,7-15.6,15.6c0,8.6,7,15.6,15.6,15.6c8.6,0,15.6-7,15.6-15.6
				C81.5,167.2,74.5,160.2,65.8,160.2 M217.3,160.2c-8.6,0-15.6,7-15.6,15.6c0,8.6,7,15.6,15.6,15.6c8.6,0,15.6-7,15.6-15.6
				C232.9,167.2,225.9,160.2,217.3,160.2 M217.3,216.6c22.5,0,40.8-18.2,40.8-40.8c0-22.5-18.2-40.7-40.8-40.7
				c-22.5,0-40.8,18.2-40.8,40.7C176.5,198.4,194.8,216.6,217.3,216.6 M166,174.5c0.7-26.9,22.1-48.7,48.9-49.9
				c0.4-0.1,26.2-0.1,26.2-0.1l-0.1-15l-58.8-11.2l-4.4-17.6c-1-3.9-4.5-6.6-8.4-6.6h-13.1c-2.8,0-5,2.2-5,5c0,2.8,2.2,5,5,5h12
				c0.5,2,2.2,8.6,3.9,15.5c-7.3,4.5-22.4,13.7-26.1,15.1c-4.5,1.8-10.6,1.9-16.7-0.3l-46.9-11.9c-3.7-1.1-6.9-1.6-10.7-1.6H38.3
				c-1.9,0-3.4,1.4-3.6,3.3l-0.1,18.6c0,0,39.4,2.5,39.7,2.6c23.9,4,42.2,24.4,42.9,49.3H166z M65.8,216.6
				c22.5,0,40.8-18.2,40.8-40.8c0-22.5-18.3-40.7-40.8-40.7c-22.5,0-40.8,18.2-40.8,40.7C25.1,198.4,43.3,216.6,65.8,216.6
				 M37.6,85.7c-2.3,0-4.2,1.9-4.2,4.2c0,2.3,1.9,4.2,4.2,4.2h38.8c2.3,0,4.2-1.9,4.2-4.2c0-2.3-1.9-4.2-4.2-4.2H37.6 M192.5,85.7
				c-2.3,0-4.2,1.9-4.2,4.2c0,2.3,1.9,4.2,4.2,4.2h41v4.8c0,2.3,1.9,4.2,4.2,4.2c2.3,0,4.2-1.9,4.2-4.2v-5.3c0-4.3-3.5-7.9-7.9-7.9
				H192.5"/>
		</g>
	</g>
</g>
</svg>
